src/assets/svg/icons/fa/nuevos/classic/light/bed-pulse classic light.svg

<svg xmlns="http://www.w3.org/2000/svg" viewBox="0 0 640 512"><path d="M505.9 64H624C632.8 64 640 71.16 640 80C640 88.84 632.8 96 624 96H496C489.9 96 484.4 92.58 481.7 87.16L465.6 55.02L414.9 181.9C412.5 187.8 406.1 191.7 400.7 191.1C394.4 192.2 388.5 188.8 385.7 183.2L342.1 95.1H208C199.2 95.1 192 88.84 192 79.1C192 71.16 199.2 63.1 208 63.1H352C358.1 63.1 363.6 67.42 366.3 72.84L398.4 136.1L449.1 10.06C451.5 4.208 457 .2756 463.3 .0139C469.6-.2479 475.5 3.209 478.3 8.845L505.9 64zM304 160H338.3L354.3 192H304C295.2 192 288 199.2 288 208V352H608V272C608 227.8 572.2 192 528 192H445.3L458.1 160H528C589.9 160 640 210.1 640 272V496C640 504.8 632.8 512 624 512C615.2 512 608 504.8 608 496V448H32V496C32 504.8 24.84 512 16 512C7.164 512 0 504.8 0 496V80C0 71.16 7.164 64 16 64C24.84 64 32 71.16 32 80V352H256V208C256 181.5 277.5 160 304 160zM608 384H32V416H608V384zM224 240C224 284.2 188.2 320 144 320C99.82 320 64 284.2 64 240C64 195.8 99.82 160 144 160C188.2 160 224 195.8 224 240zM144 192C117.5 192 96 213.5 96 240C96 266.5 117.5 288 144 288C170.5 288 192 266.5 192 240C192 213.5 170.5 192 144 192z"/></svg>

<svg xmlns="http://www.w3.org/2000/svg" viewBox="0 0 640 512"><!--! Font Awesome Pro 6.4.0 by @fontawesome - https://fontawesome.com License - https://fontawesome.com/license (Commercial License) Copyright 2023 Fonticons, Inc. --><path d="M478.3 8.8L505.9 64H624c8.8 0 16 7.2 16 16s-7.2 16-16 16H496c-6.1 0-11.6-3.4-14.3-8.8L465.6 55 414.9 181.9c-2.3 5.9-7.9 9.8-14.2 10s-12.2-3.2-15-8.8L342.1 96H208c-8.8 0-16-7.2-16-16s7.2-16 16-16H352c6.1 0 11.6 3.4 14.3 8.8L398.4 137 449.1 10.1c2.3-5.9 7.9-9.8 14.2-10s12.2 3.2 15 8.8zM304 160h34.3l16 32H304c-8.8 0-16 7.2-16 16V352H608V272c0-44.2-35.8-80-80-80H445.3l12.8-32H528c61.9 0 112 50.1 112 112v96 64 64c0 8.8-7.2 16-16 16s-16-7.2-16-16V448H32v48c0 8.8-7.2 16-16 16s-16-7.2-16-16V432 368 80c0-8.8 7.2-16 16-16s16 7.2 16 16V352H256V208c0-26.5 21.5-48 48-48zM608 416V384H272 32v32H608zM192 240a48 48 0 1 0 -96 0 48 48 0 1 0 96 0zM64 240a80 80 0 1 1 160 0A80 80 0 1 1 64 240z"/></svg>
